assets/img/braze_icons/users-right.svg

<svg fill="none" height="24" viewBox="0 0 24 24" width="24" xmlns="http://www.w3.org/2000/svg"><g fill="#801ed7"><path d="m19.7071 14.2929c-.3905-.3905-1.0237-.3905-1.4142 0s-.3905 1.0237 0 1.4142l1.2929 1.2929h-3.5858c-.5523 0-1 .4477-1 1s.4477 1 1 1h3.5858l-1.2929 1.2929c-.3905.3905-.3905 1.0237 0 1.4142s1.0237.3905 1.4142 0l3-3c.1875-.1875.2929-.4419.2929-.7071s-.1054-.5196-.2929-.7071z"/><g clip-rule="evenodd" fill-rule="evenodd"><path d="m12.181 14.1635c.2822.1438.5117.3733.6555.6555.1531.3004.1636.6286.1635.9579v.0231c0 1.4744-.0005 2.9488 0 4.4231.0001.1191.0001.2614-.0101.3867-.0119.1452-.0423.3532-.1534.5712-.1438.2822-.3733.5117-.6555.6555-.218.1111-.4259.1415-.5712.1534-.1253.0102-.2675.0102-.3867.0101-2.8154-.001-5.63084-.001-8.44628 0-.11927.0001-.26184.0001-.38746-.0102-.14572-.012-.35413-.0426-.57241-.1542-.2826-.1445-.51267-.3756-.65586-.6589-.1103-.2182-.14022-.4261-.15159-.5721-.009763-.1255-.00906-.2677-.00847-.3861.00516-1.0393-.025827-2.1532.37958-3.1319.50747-1.2252 1.48084-2.1985 2.70598-2.706.5097-.2111 1.04798-.2987 1.65672-.3402.59201-.0404 1.31942-.0404 2.22118-.0404 1.08622 0 2.17241.0004 3.25861 0 .3293-.0001.6575.0104.9579.1635z"/><path d="m14.5731 2.91554c.2072-.51193.7902-.75894 1.3021-.55172 1.8306.74099 3.1248 2.53624 3.1248 4.63618s-1.2942 3.8952-3.1248 4.6362c-.5119.2072-1.0949-.0398-1.3021-.5517-.2073-.512.0398-1.09497.5517-1.3022 1.1013-.44578 1.8752-1.52486 1.8752-2.7823s-.7739-2.33652-1.8752-2.7823c-.5119-.20723-.759-.79022-.5517-1.30216z"/><path d="m4.50001 7c0-2.76142 2.23857-5 5-5 2.76139 0 4.99999 2.23858 4.99999 5s-2.2386 5-4.99999 5c-2.76143 0-5-2.23858-5-5z"/></g></g></svg>

<svg width="24" height="24" viewBox="0 0 24 24" fill="none" xmlns="http://www.w3.org/2000/svg">
<path d="M19.7071 14.2929C19.3166 13.9024 18.6834 13.9024 18.2929 14.2929C17.9024 14.6834 17.9024 15.3166 18.2929 15.7071L19.5858 17H16C15.4477 17 15 17.4477 15 18C15 18.5523 15.4477 19 16 19H19.5858L18.2929 20.2929C17.9024 20.6834 17.9024 21.3166 18.2929 21.7071C18.6834 22.0976 19.3166 22.0976 19.7071 21.7071L22.7071 18.7071C22.8946 18.5196 23 18.2652 23 18C23 17.7348 22.8946 17.4804 22.7071 17.2929L19.7071 14.2929Z" fill="#801ED7"/>
<path fill-rule="evenodd" clip-rule="evenodd" d="M12.181 14.1635C12.4632 14.3073 12.6927 14.5368 12.8365 14.819C12.9896 15.1194 13.0001 15.4476 13 15.7769C13 15.7847 13 15.7924 13 15.8C13 17.2744 12.9995 18.7488 13 20.2231C13.0001 20.3422 13.0001 20.4845 12.9899 20.6098C12.978 20.755 12.9476 20.963 12.8365 21.181C12.6927 21.4632 12.4632 21.6927 12.181 21.8365C11.963 21.9476 11.7551 21.978 11.6098 21.9899C11.4845 22.0001 11.3423 22.0001 11.2231 22C8.4077 21.999 5.59226 21.999 2.77682 22C2.65755 22.0001 2.51498 22.0001 2.38936 21.9898C2.24364 21.9778 2.03523 21.9472 1.81695 21.8356C1.53435 21.6911 1.30428 21.46 1.16109 21.1767C1.05079 20.9585 1.02087 20.7506 1.0095 20.6046C0.999737 20.4791 1.00044 20.3369 1.00103 20.2185C1.00619 19.1792 0.975203 18.0653 1.38061 17.0866C1.88808 15.8614 2.86145 14.8881 4.08659 14.3806C4.59629 14.1695 5.13457 14.0819 5.74331 14.0404C6.33532 14 7.06273 14 7.96449 14C9.05071 14 10.1369 14.0004 11.2231 14C11.5524 13.9999 11.8806 14.0104 12.181 14.1635Z" fill="#801ED7"/>
<path fill-rule="evenodd" clip-rule="evenodd" d="M14.5731 2.91554C14.7803 2.40361 15.3633 2.1566 15.8752 2.36382C17.7058 3.10481 19 4.90006 19 7C19 9.09994 17.7058 10.8952 15.8752 11.6362C15.3633 11.8434 14.7803 11.5964 14.5731 11.0845C14.3658 10.5725 14.6129 9.98953 15.1248 9.7823C16.2261 9.33652 17 8.25744 17 7C17 5.74256 16.2261 4.66348 15.1248 4.2177C14.6129 4.01047 14.3658 3.42748 14.5731 2.91554Z" fill="#801ED7"/>
<path fill-rule="evenodd" clip-rule="evenodd" d="M4.50001 7C4.50001 4.23858 6.73858 2 9.50001 2C12.2614 2 14.5 4.23858 14.5 7C14.5 9.76142 12.2614 12 9.50001 12C6.73858 12 4.50001 9.76142 4.50001 7Z" fill="#801ED7"/>
</svg>
